packages/components/src/components/icon/cashier/ic-cashier-usd-coin-dark.svg

<svg width="40" height="25" viewBox="0 0 40 25" fill="none" xmlns="http://www.w3.org/2000/svg">
<path d="M14.4268 10.3819H14.6999C14.7698 10.3819 14.8262 10.4383 14.8262 10.5077V12.9544C14.8262 13.7278 15.2451 14.2161 16.0246 14.2161C16.804 14.2161 17.2229 13.7278 17.2229 12.9549V10.5082C17.2229 10.4383 17.2794 10.3819 17.3493 10.3819H17.6224C17.6923 10.3819 17.7487 10.4383 17.7487 10.5077V12.9614C17.7487 14.0139 17.171 14.685 16.0246 14.685C14.8777 14.685 14.3004 14.0074 14.3004 12.9674V10.5082C14.2989 10.4383 14.3554 10.3824 14.4268 10.3824V10.3819ZM18.5541 13.7148C18.5941 13.6629 18.6719 13.6584 18.7189 13.7033C19.002 13.9785 19.4254 14.2161 19.9622 14.2161C20.7161 14.2161 20.9573 13.8102 20.9573 13.4871C20.9573 12.9788 20.4445 12.84 19.8863 12.6882C19.2087 12.51 18.4532 12.3207 18.4532 11.4899C18.4532 10.7923 19.0749 10.317 19.9063 10.317C20.5029 10.317 20.9748 10.4997 21.3228 10.8213C21.3727 10.8667 21.3777 10.9446 21.3338 10.9961L21.169 11.1983C21.1286 11.2482 21.0542 11.2517 21.0072 11.2083C20.6982 10.9187 20.2907 10.7859 19.8673 10.7859C19.3595 10.7859 18.9985 11.0595 18.9985 11.4569C18.9985 11.8823 19.4868 12.0087 20.0256 12.154C20.7161 12.3387 21.5021 12.5534 21.5021 13.4417C21.5021 14.0559 21.0831 14.6835 19.9432 14.6835C19.2606 14.6835 18.7463 14.4428 18.3968 14.0933C18.3519 14.0484 18.3469 13.9755 18.3868 13.925L18.5541 13.7153V13.7148ZM22.1282 10.5077C22.1282 10.4378 22.1846 10.3819 22.254 10.3819H23.5722C24.8839 10.3819 25.7413 11.3006 25.7413 12.499C25.7413 13.7033 24.8854 14.6091 23.5722 14.6091H22.254C22.1846 14.6091 22.1282 14.5527 22.1282 14.4833V10.5077ZM23.5737 14.1402C24.6008 14.1402 25.196 13.4043 25.196 12.4985C25.196 11.5848 24.6188 10.8508 23.5737 10.8508H22.655V14.1402H23.5737ZM31.002 13.0762C31.002 12.1879 31.5862 11.4719 32.5175 11.4719C33.4487 11.4719 34.0329 12.1879 34.0329 13.0762C34.0329 13.964 33.4487 14.687 32.5175 14.687C31.5857 14.687 31.002 13.9625 31.002 13.0762ZM33.5316 13.0762C33.5316 12.4551 33.1706 11.8968 32.5175 11.8968C31.8639 11.8968 31.4969 12.4551 31.4969 13.0762C31.4969 13.7033 31.8639 14.2616 32.5175 14.2616C33.1706 14.2616 33.5311 13.7033 33.5311 13.0762H33.5316ZM34.4888 10.7115C34.4888 10.5337 34.6346 10.3944 34.8058 10.3944C34.9836 10.3944 35.1294 10.5337 35.1294 10.7115C35.1294 10.8897 34.9836 11.035 34.8058 11.035C34.6346 11.035 34.4888 10.8877 34.4888 10.7115ZM34.6975 11.5478H34.9192C34.9886 11.5478 35.045 11.6042 35.045 11.6736V14.4833C35.045 14.5527 34.9886 14.6091 34.9192 14.6091H34.6975C34.6276 14.6091 34.5711 14.5527 34.5711 14.4833V11.6736C34.5711 11.6042 34.6281 11.5478 34.6975 11.5478ZM37.7847 12.6069C37.7847 12.0686 37.5116 11.8968 37.1007 11.8968C36.7272 11.8968 36.3717 12.125 36.1934 12.3727V14.4833C36.1934 14.5527 36.137 14.6091 36.0671 14.6091H35.8459C35.776 14.6091 35.7196 14.5527 35.7196 14.4833V11.6736C35.7196 11.6042 35.776 11.5478 35.8459 11.5478H36.0671C36.137 11.5478 36.1934 11.6042 36.1934 11.6736V11.9907C36.4081 11.737 36.8276 11.4714 37.2834 11.4714C37.924 11.4714 38.2601 11.795 38.2601 12.4601V14.4813C38.2601 14.5512 38.2037 14.6076 38.1343 14.6076H37.9126C37.8427 14.6076 37.7862 14.5512 37.7862 14.4813V12.6069H37.7847ZM26.9426 12.499C26.9426 11.1988 27.9003 10.3125 29.0987 10.3125C29.8087 10.3125 30.307 10.6216 30.643 11.0455C30.685 11.0984 30.6705 11.1778 30.6106 11.2118L30.3744 11.3426C30.321 11.3735 30.2531 11.3591 30.2146 11.3121C29.9635 11.0016 29.5575 10.7829 29.0987 10.7829C28.1914 10.7829 27.4879 11.4934 27.4879 12.5005C27.4879 13.5021 28.1914 14.2181 29.0987 14.2181C29.5595 14.2181 29.9655 14.0049 30.2141 13.6894C30.2531 13.6409 30.3195 13.628 30.3744 13.6569L30.6141 13.7882C30.6755 13.8222 30.69 13.9031 30.646 13.9565C30.2965 14.3834 29.8087 14.6875 29.0982 14.6875C27.8998 14.6855 26.9426 13.7992 26.9426 12.499Z" fill="white"/>
<path d="M6.875 17.5C9.63642 17.5 11.875 15.2614 11.875 12.5C11.875 9.73858 9.63642 7.5 6.875 7.5C4.11358 7.5 1.875 9.73858 1.875 12.5C1.875 15.2614 4.11358 17.5 6.875 17.5Z" fill="#2775CA"/>
<path d="M5.93792 15.8402C5.93792 15.9577 5.8459 16.0249 5.73209 15.9891C4.2204 15.5066 3.12402 14.0894 3.12402 12.4167C3.12402 10.7439 4.2198 9.3261 5.73209 8.8436C5.8459 8.80848 5.93792 8.87508 5.93792 8.99313V9.28312C5.93792 9.36182 5.87738 9.45384 5.80292 9.47927C4.60665 9.91818 3.7494 11.0672 3.7494 12.4149C3.7494 13.7619 4.60665 14.9109 5.80292 15.3498C5.87738 15.3777 5.93792 15.4679 5.93792 15.546V15.8402Z" fill="white"/>
<path d="M7.18687 14.7595C7.18687 14.8461 7.11665 14.917 7.03008 14.917H6.71829C6.63233 14.917 6.5615 14.8461 6.5615 14.7595V14.2655C5.87921 14.1735 5.54563 13.7909 5.45543 13.2715C5.43969 13.1831 5.51052 13.1026 5.60073 13.1026H5.95791C6.03238 13.1026 6.09473 13.1558 6.11047 13.2303C6.17707 13.5403 6.35566 13.7776 6.90294 13.7776C7.30674 13.7776 7.5931 13.5518 7.5931 13.2146C7.5931 12.8774 7.42419 12.7496 6.83211 12.6515C5.95791 12.5341 5.54382 12.2695 5.54382 11.583C5.54382 11.0539 5.94338 10.6422 6.56331 10.5538V10.0695C6.56331 9.98294 6.63414 9.91211 6.72072 9.91211H7.03189C7.11846 9.91211 7.1893 9.98294 7.1893 10.0695V10.5672C7.69299 10.658 8.01264 10.9437 8.11677 11.4183C8.13614 11.5092 8.06531 11.5927 7.97329 11.5927H7.64456C7.57372 11.5927 7.515 11.5461 7.49321 11.4777C7.40542 11.175 7.1899 11.046 6.81516 11.046C6.40167 11.046 6.18736 11.2458 6.18736 11.5261C6.18736 11.8228 6.30904 11.9717 6.94411 12.0637C7.80378 12.1811 8.24633 12.4263 8.24633 13.1577C8.24633 13.7128 7.83465 14.1614 7.1899 14.2655V14.7595H7.18687Z" fill="white"/>
<path d="M8.01869 15.9886C7.90487 16.0243 7.81285 15.9571 7.81285 15.8397V15.5491C7.81285 15.4631 7.86552 15.3826 7.94785 15.3535C9.14412 14.914 10.0008 13.765 10.0008 12.418C10.0008 11.0709 9.14412 9.9219 7.94846 9.48238C7.87339 9.45513 7.81285 9.36493 7.81285 9.28623V8.99624C7.81285 8.87879 7.90487 8.80978 8.01869 8.84731C9.53037 9.32982 10.6261 10.7471 10.6261 12.4198C10.6243 14.0889 9.53037 15.5043 8.01869 15.9886Z" fill="white"/>
</svg>

<svg width="40" height="25" fill="none" xmlns="http://www.w3.org/2000/svg"><path d="M14.427 10.382h.273c.07 0 .126.056.126.126v2.446c0 .774.42 1.262 1.199 1.262.779 0 1.198-.488 1.198-1.261v-2.447c0-.07.056-.126.126-.126h.273c.07 0 .127.056.127.126v2.453c0 1.053-.578 1.724-1.724 1.724-1.147 0-1.725-.678-1.725-1.718v-2.459a.124.124 0 01.127-.126zm4.127 3.333a.112.112 0 01.165-.012c.283.276.706.513 1.243.513.754 0 .995-.406.995-.729 0-.508-.512-.647-1.07-.799-.678-.178-1.434-.367-1.434-1.198 0-.698.622-1.173 1.453-1.173.597 0 1.069.183 1.417.504.05.046.055.124.01.175l-.164.202a.111.111 0 01-.162.01c-.309-.29-.716-.422-1.14-.422-.508 0-.869.274-.869.67 0 .426.489.553 1.028.698.69.185 1.476.4 1.476 1.288 0 .614-.419 1.242-1.559 1.242-.682 0-1.197-.241-1.546-.59a.127.127 0 01-.01-.169l.167-.21zm3.574-3.207c0-.07.057-.126.126-.126h1.318c1.312 0 2.17.919 2.17 2.117 0 1.204-.857 2.11-2.17 2.11h-1.318a.126.126 0 01-.126-.126v-3.975zm1.446 3.632c1.027 0 1.622-.736 1.622-1.642 0-.913-.577-1.647-1.622-1.647h-.919v3.29h.919zm7.428-1.064c0-.888.584-1.604 1.515-1.604.932 0 1.516.716 1.516 1.604 0 .888-.584 1.611-1.516 1.611-.931 0-1.515-.724-1.515-1.61zm2.53 0c0-.62-.361-1.18-1.014-1.18-.654 0-1.021.56-1.021 1.18 0 .627.367 1.186 1.02 1.186.654 0 1.014-.559 1.014-1.186zm.957-2.365c0-.177.146-.317.317-.317a.32.32 0 01.323.317.324.324 0 01-.323.324.324.324 0 01-.317-.324zm.209.837h.221c.07 0 .126.056.126.126v2.81c0 .069-.056.125-.126.125h-.221a.126.126 0 01-.127-.126v-2.81c0-.069.057-.125.127-.125zm3.087 1.059c0-.538-.273-.71-.684-.71-.374 0-.73.228-.908.476v2.11c0 .07-.056.126-.126.126h-.221a.126.126 0 01-.126-.126v-2.81c0-.069.056-.125.126-.125h.221c.07 0 .126.056.126.126v.317c.215-.254.635-.52 1.09-.52.641 0 .977.324.977.99v2.02c0 .07-.056.127-.126.127h-.221a.126.126 0 01-.127-.127v-1.874h-.001zm-10.842-.108c0-1.3.957-2.187 2.156-2.187.71 0 1.208.31 1.544.734a.112.112 0 01-.032.166l-.237.13a.126.126 0 01-.16-.03 1.444 1.444 0 00-1.115-.53c-.908 0-1.611.711-1.611 1.719 0 1.001.703 1.717 1.61 1.717.462 0 .867-.213 1.116-.529a.128.128 0 01.16-.032l.24.131a.111.111 0 01.032.168c-.35.427-.837.732-1.548.732-1.198-.003-2.155-.889-2.155-2.189z" fill="#fff"/><path d="M6.875 17.5a5 5 0 100-10 5 5 0 000 10z" fill="#2775CA"/><path d="M5.938 15.84c0 .118-.092.185-.206.15a3.752 3.752 0 010-7.146c.114-.036.206.031.206.15v.29c0 .078-.06.17-.135.195a3.131 3.131 0 00-2.054 2.936 3.13 3.13 0 002.054 2.935.227.227 0 01.135.196v.294z" fill="#fff"/><path d="M7.187 14.76c0 .086-.07.157-.157.157h-.312a.158.158 0 01-.157-.158v-.494c-.682-.091-1.015-.474-1.106-.994a.146.146 0 01.146-.168h.357c.074 0 .137.053.152.127.067.31.246.548.793.548.404 0 .69-.226.69-.563 0-.338-.169-.465-.76-.563-.875-.118-1.29-.382-1.29-1.069 0-.53.4-.94 1.02-1.03v-.484c0-.086.071-.157.158-.157h.31c.087 0 .158.07.158.157v.498c.504.091.824.377.928.851a.145.145 0 01-.144.175h-.328a.159.159 0 01-.152-.115c-.088-.303-.303-.432-.678-.432-.413 0-.628.2-.628.48 0 .297.122.446.757.538.86.117 1.302.362 1.302 1.094 0 .555-.411 1.003-1.056 1.107v.494h-.003z" fill="#fff"/><path d="M8.019 15.989c-.114.035-.206-.032-.206-.15v-.29c0-.086.053-.166.135-.195A3.132 3.132 0 0010 12.418a3.132 3.132 0 00-2.053-2.936.225.225 0 01-.135-.196v-.29c0-.117.092-.186.206-.149a3.751 3.751 0 012.607 3.573 3.754 3.754 0 01-2.607 3.569z" fill="#fff"/></svg>
